resources/haticons/SVG/enlarge.svg

<!-- Generated by IcoMoon.io -->
<svg version="1.1" xmlns="http://www.w3.org/2000/svg" width="24" height="24" viewBox="0 0 24 24">
<title>enlarge</title>
<path d="M24 0h-9.75l3.75 3.75-4.5 4.5 2.25 2.25 4.5-4.5 3.75 3.75z"></path>
<path d="M24 24v-9.75l-3.75 3.75-4.5-4.5-2.25 2.25 4.5 4.5-3.75 3.75z"></path>
<path d="M0 24h9.75l-3.75-3.75 4.5-4.5-2.25-2.25-4.5 4.5-3.75-3.75z"></path>
<path d="M0 0v9.75l3.75-3.75 4.5 4.5 2.25-2.25-4.5-4.5 3.75-3.75z"></path>
</svg>

<svg xmlns="http://www.w3.org/2000/svg" width="24" height="24"><path d="M24 0h-9.75L18 3.75l-4.5 4.5 2.25 2.25 4.5-4.5L24 9.75zm0 24v-9.75L20.25 18l-4.5-4.5-2.25 2.25 4.5 4.5L14.25 24zM0 24h9.75L6 20.25l4.5-4.5-2.25-2.25-4.5 4.5L0 14.25zM0 0v9.75L3.75 6l4.5 4.5 2.25-2.25L6 3.75 9.75 0z"/></svg>
